z_dist/img/icons/crypto/ethereum-classic-ETC.svg

<svg width="64" height="64" viewBox="0 0 64 64" fill="none" xmlns="http://www.w3.org/2000/svg">
<g clip-path="url(#clip0_257_1699)">
<rect width="64" height="64" rx="4" fill="white"/>
<path fill-rule="evenodd" clip-rule="evenodd" d="M20.2667 30.0089L32.0717 23.7944L43.7801 30.0475L32.0202 12.8L20.2667 30.0089ZM20.717 31.8036L32.0845 25.7378L43.3041 31.7592L32.0909 37.8317L20.717 31.8036ZM20.2667 33.5408C24.4096 35.741 28.7327 38.044 32.0717 39.826L43.7801 33.5408C39.5407 39.8388 36.0083 45.082 32.0717 50.8848L29.7961 47.5443C26.5094 42.7196 23.109 37.7281 20.2667 33.5408Z" fill="#3AB83A"/>
<path fill-rule="evenodd" clip-rule="evenodd" d="M32.0202 12.8L32.0717 23.7948L43.7801 30.0475L32.0202 12.8ZM32.0845 25.7378L43.3041 31.7592L32.0909 37.8317L32.0845 25.7378ZM32.0717 39.826L43.7801 33.5408C39.5407 39.8388 32.0717 50.8848 32.0717 50.8848V39.826Z" fill="#0B8311"/>
<path d="M20.717 31.8037L32.0851 32.7366L43.3047 31.7651L32.0909 37.8381L20.717 31.8037Z" fill="#0B8311"/>
<path d="M32.0845 32.7366L43.304 31.7651L32.0909 37.8381L32.0845 32.7366Z" fill="#146714"/>
</g>
<defs>
<clipPath id="clip0_257_1699">
<rect width="64" height="64" fill="white"/>
</clipPath>
</defs>
</svg>

<svg width="64" height="64" fill="none" xmlns="http://www.w3.org/2000/svg"><g clip-path="url(#clip0_257_1699)"><rect width="64" height="64" rx="4" fill="#fff"/><path fill-rule="evenodd" clip-rule="evenodd" d="M20.267 30.009l11.805-6.215 11.708 6.253L32.02 12.8 20.267 30.009zm.45 1.795l11.367-6.066 11.22 6.021-11.213 6.073-11.374-6.028zm-.45 1.737c4.143 2.2 8.466 4.503 11.805 6.285l11.708-6.285a5589.522 5589.522 0 01-11.708 17.344l-2.276-3.34c-3.287-4.825-6.687-9.817-9.53-14.004z" fill="#3AB83A"/><path fill-rule="evenodd" clip-rule="evenodd" d="M32.02 12.8l.052 10.995 11.708 6.252L32.02 12.8zm.064 12.938l11.22 6.021-11.213 6.073-.007-12.094zm-.012 14.088l11.708-6.285c-4.24 6.298-11.708 17.344-11.708 17.344V39.826z" fill="#0B8311"/><path d="M20.717 31.804l11.368.933 11.22-.972-11.214 6.073-11.374-6.034z" fill="#0B8311"/><path d="M32.084 32.737l11.22-.972-11.213 6.073-.007-5.101z" fill="#146714"/></g><defs><clipPath id="clip0_257_1699"><path fill="#fff" d="M0 0h64v64H0z"/></clipPath></defs></svg>
